usr/share/icons/biglinux-icons-material/scalable/apps/simplescreenrecorder.svg

<svg width="24" height="24" viewBox="0 0 24 24" fill="none" xmlns="http://www.w3.org/2000/svg">
<path fill-rule="evenodd" clip-rule="evenodd" d="M9.93969 1.06779C9.83043 1.0996 9.71588 1.11486 9.59604 1.11359C8.8536 1.17326 8.12048 1.29157 7.39669 1.46852C4.2905 2.20701 2.33171 4.11908 1.52031 7.20471C1.14 8.77709 0.968176 10.3724 1.00483 11.9906C0.974199 13.5124 1.12311 15.0161 1.45158 16.5017C2.22559 19.8018 4.26839 21.8208 7.57997 22.5585C9.00823 22.8524 10.4481 22.9996 11.8995 23C11.9037 23 11.908 23 11.9123 23C12.2849 22.9999 12.6583 22.9901 13.0325 22.9706C14.6647 22.943 16.2531 22.6682 17.7978 22.1463C19.704 21.447 21.0824 20.1761 21.933 18.3336C22.3916 17.271 22.6895 16.1642 22.8265 15.0133C22.9421 13.9799 22.9999 12.945 23 11.9087C23 11.9066 23 11.9045 23 11.9024C22.9999 11.2988 22.9803 10.6946 22.9411 10.09C22.8639 8.78021 22.6119 7.50549 22.185 6.26586C21.4386 4.2069 20.0525 2.76044 18.0269 1.9265C16.8085 1.46308 15.5484 1.18066 14.2467 1.07924C13.5021 1.0265 12.7575 1.00008 12.0128 1C12.0105 1 12.0081 1 12.0058 1C11.3171 1.00008 10.6284 1.02267 9.93969 1.06779Z" fill="url(#paint0_linear_3_253)"/>
<path d="M12 5.125C8.20262 5.125 5.125 8.20305 5.125 12C5.125 15.7969 8.20305 18.875 12 18.875C15.7974 18.875 18.875 15.7969 18.875 12C18.875 8.20305 15.7969 5.125 12 5.125ZM12 5.88533C15.3736 5.88533 18.1147 8.62678 18.1147 12C18.1147 15.3732 15.3732 18.1142 12 18.1142C8.62636 18.1142 5.88533 15.3728 5.88533 11.9996C5.88533 8.62636 8.62679 5.88533 12 5.88533Z" fill="black" fill-opacity="0.498"/>
<path d="M12 6.94296C12.2025 6.94296 12.4041 6.96431 12.595 6.9925C12.3985 6.96944 12.2025 6.94296 12 6.94296ZM12 6.94296C11.7975 6.94296 11.6015 6.96944 11.405 6.9925C11.6018 6.96137 11.8007 6.94481 12 6.94296ZM11.405 6.9925C8.89761 7.28852 6.94296 9.4136 6.94296 12C6.94296 14.7893 9.21114 17.0575 12.0004 17.0575C14.7897 17.0575 17.0571 14.7893 17.0571 12C17.0571 9.41317 15.102 7.28852 12.595 6.9925C13.9324 7.19198 14.9418 8.05696 14.9418 9.09152C14.9418 10.2735 13.621 11.223 12 11.223C10.379 11.223 9.05822 10.2739 9.05822 9.09152C9.05822 8.05696 10.0676 7.19198 11.405 6.9925Z" fill="black" fill-opacity="0.498"/>
<path d="M12 10.1107C13.2376 10.1107 14.2408 9.40158 14.2408 8.52683C14.2408 7.65208 13.2376 6.94296 12 6.94296C10.7624 6.94296 9.75916 7.65208 9.75916 8.52683C9.75916 9.40158 10.7624 10.1107 12 10.1107Z" fill="black" fill-opacity="0.498"/>
<path d="M18.4167 4.66667C18.1736 4.66667 17.9404 4.76324 17.7685 4.93515C17.5966 5.10706 17.5 5.34022 17.5 5.58333C17.5 5.82644 17.5966 6.0596 17.7685 6.23151C17.9404 6.40342 18.1736 6.49999 18.4167 6.49999C18.6598 6.49999 18.8929 6.40342 19.0648 6.23151C19.2368 6.0596 19.3333 5.82644 19.3333 5.58333C19.3333 5.34022 19.2368 5.10706 19.0648 4.93515C18.8929 4.76324 18.6598 4.66667 18.4167 4.66667Z" fill="black" fill-opacity="0.498"/>
<defs>
<linearGradient id="paint0_linear_3_253" x1="12" y1="1" x2="12" y2="12" gradientUnits="userSpaceOnUse">
<stop stop-color="#DC9DFF"/>
<stop offset="1" stop-color="#AD5BDB"/>
</linearGradient>
</defs>
</svg>

<svg xmlns="http://www.w3.org/2000/svg" width="24" height="24" fill="none"><path fill="url(#a)" fill-rule="evenodd" d="M9.94 1.068c-.11.032-.224.047-.344.046-.742.06-1.476.178-2.2.355-3.106.738-5.064 2.65-5.876 5.736a18.491 18.491 0 0 0-.515 4.786c-.03 1.521.118 3.025.447 4.51.774 3.3 2.816 5.32 6.128 6.057 1.428.294 2.868.442 4.32.442h.012c.373 0 .746-.01 1.12-.03a15.624 15.624 0 0 0 4.766-.824c1.906-.699 3.284-1.97 4.135-3.812a11.88 11.88 0 0 0 .893-3.32A27.93 27.93 0 0 0 23 11.908v-.007c0-.603-.02-1.207-.059-1.812a14.268 14.268 0 0 0-.756-3.824c-.746-2.06-2.133-3.506-4.158-4.34a13.537 13.537 0 0 0-3.78-.847C13.502 1.027 12.757 1 12.013 1h-.007c-.689 0-1.378.023-2.066.068Z" clip-rule="evenodd"/><path fill="#000" fill-opacity=".498" d="M12 5.125a6.875 6.875 0 1 0 0 13.75 6.875 6.875 0 0 0 0-13.75Zm0 .76A6.12 6.12 0 0 1 18.115 12 6.12 6.12 0 0 1 12 18.114 6.12 6.12 0 0 1 5.885 12 6.12 6.12 0 0 1 12 5.885Z"/><path fill="#000" fill-opacity=".498" d="M12 6.943c.203 0 .404.021.595.05-.197-.024-.393-.05-.595-.05Zm0 0c-.203 0-.399.026-.595.05a4.05 4.05 0 0 1 .595-.05Zm-.595.05C8.898 7.288 6.943 9.412 6.943 12A5.062 5.062 0 0 0 12 17.058 5.062 5.062 0 0 0 17.057 12c0-2.587-1.955-4.711-4.462-5.008 1.337.2 2.347 1.065 2.347 2.1 0 1.181-1.321 2.131-2.942 2.131-1.621 0-2.942-.95-2.942-2.131 0-1.035 1.01-1.9 2.347-2.1Z"/><path fill="#000" fill-opacity=".498" d="M12 10.11c1.238 0 2.24-.708 2.24-1.583S13.239 6.943 12 6.943c-1.238 0-2.24.71-2.24 1.584 0 .875 1.002 1.584 2.24 1.584ZM18.417 4.667a.917.917 0 1 0 0 1.833.917.917 0 0 0 0-1.833Z"/><defs><linearGradient id="a" x1="12" x2="12" y1="1" y2="12" gradientUnits="userSpaceOnUse"><stop stop-color="#DC9DFF"/><stop offset="1" stop-color="#AD5BDB"/></linearGradient></defs></svg>
